X: 87
T: No_48_Dream_Song_Concerning_the_Sun_(b).krn
N: Derived from No_48_Dream_Song_Concerning_the_Sun_(b).krn
%%abc-version 2.0
%%abcx-abcm2ps-target-version 5.9.1 (29 Sep 2008)
%%abc-creator hum2abc beta
%%abcx-conversion-date 2019/03/15 08:35:44
%%humdrum-veritas 994410050
%%humdrum-veritas-data 293055305
%%linebreak <none>
%%barnumbers 0
L: 1/8
M: 2/4
K: Bb clef=bass
[K:clef=bass][M:2/4]CD/D/C2 | 
B,B, G, z | 
B,C/C/B,2 ||  
[M:3/4]G,G,G,2A,G, ||  
[M:2/4]F,F,F,2- | 
F,2F, z | 
B,C/C/B,2 | 
F,F, D, z | 
F,G,/G,/G,2 ||  
[M:3/4]F,F,F,2G,F, | 
D,D,B,,2z2 ||  
[M:2/4]C,C,/C,/C,2 | 
B,,B,, F,, z | 
B,,C,/C,/B,,2 | 
B,,G,,F,,2- | 
F,,4 |]  



